assets/ai/ai-obp-square.svg

<svg xmlns="http://www.w3.org/2000/svg" width="100%" height="100%" viewBox="-75.52 -43.52 599.04 599.04"><path d="M 48 32 C 21.5 32 0 53.5 0 80 L 0 432 C 0 458.5 21.5 480 48 480 L 400 480 C 426.5 480 448 458.5 448 432 L 448 80 C 448 53.5 426.5 32 400 32 L 48 32 z M 139.09766 96 C 173.71405 121.68927 203.48682 149.2773 223.52539 186.69531 C 243.42151 149.2773 273.33722 121.83173 307.76367 96 L 307.76367 126.91211 C 318.16284 122.35358 327.28028 117.08333 338.1543 113.33203 L 338.1543 148.70898 C 348.50598 147.28444 357.85961 145.14612 367.87891 144.71875 L 367.87891 355.93164 C 319.77682 376.01772 271.81705 396.0089 223.85742 416 C 175.89777 396.0089 128.1757 376.01772 80.121094 355.93164 L 80.121094 144.5293 C 89.38063 145.7639 98.354986 146.95167 108.2793 148.28125 L 108.2793 113.33203 C 119.29578 117.08333 128.50854 122.25959 139.09766 127.29297 L 139.09766 96 z M 299.31055 112.76172 C 292.18783 118.93474 286.0158 124.01643 280.22266 129.42969 C 260.51647 147.71134 242.37597 167.32158 230.74219 192.01367 C 228.55789 196.6197 226.61133 201.2254 226.61133 206.63867 L 226.75391 385.08789 C 245.5579 353.08314 273.09884 328.72252 301.44727 306.07227 C 300.73499 241.87284 300.02282 178.14828 299.31055 112.76172 z M 147.74023 112.95117 C 146.98047 178.48017 146.26696 242.58644 145.55469 306.12109 C 174.52041 329.1987 200.5431 353.89038 220.1543 385.08789 L 220.1543 379.05664 C 220.1543 323.02459 220.05942 266.99299 220.29688 210.96094 C 220.34438 203.26839 218.63374 196.38286 215.21484 189.6875 C 199.54487 158.86988 175.09147 135.74387 147.74023 112.95117 z M 329.74805 125.86719 C 321.96054 129.71346 314.64861 132.61138 308.0957 137.16992 C 308.71302 194.91142 309.37684 252.41584 309.99414 309.91992 C 301.87425 316.75773 293.70682 323.26192 285.9668 330.24219 C 270.72419 343.96529 256.10008 358.35286 244.65625 375.58984 L 242.4707 379.15234 C 242.99303 378.63001 243.37464 378.29664 243.70703 378.01172 C 244.32434 377.48939 244.93995 376.96826 245.50977 376.39844 C 271.48396 354.55544 301.20972 339.07491 332.78711 326.39648 C 331.78994 259.68035 330.79271 193.15314 329.74805 125.86719 z M 116.92188 126.20117 C 115.82972 193.24969 114.7849 259.77531 113.74023 326.39648 C 145.69749 339.21737 175.66122 354.88783 202.34766 376.39844 C 184.63584 349.94942 161.27327 329.24513 137.10352 310.15625 C 137.72082 251.84493 138.33778 194.38896 138.95508 137.02734 C 131.6899 133.03861 124.89933 129.33516 116.92188 126.20117 z M 359.37891 153.93164 C 352.39863 155.11876 345.70415 156.21132 338.62891 157.39844 C 339.53113 215.56731 340.3849 275.20673 341.28711 332.56836 L 334.63867 334.89648 C 322.0552 339.78742 309.80479 345.34347 297.93359 351.75391 C 275.56825 363.76757 254.34234 377.25146 237.72266 396.91016 L 233.78125 402.4668 L 307.71484 371.88672 C 324.85686 364.71651 341.99948 357.54704 359.37891 350.23438 L 359.37891 153.93164 z M 88.667969 154.16797 L 88.667969 350.32812 C 129.97974 367.61259 170.95999 384.75498 213.31641 402.4668 C 206.95345 393.87205 200.73234 387.50995 193.89453 381.7168 C 169.86723 361.34583 142.23134 347.14671 113.26562 335.41797 C 110.51152 334.27833 105.24023 332.23633 105.24023 332.23633 C 106.14245 274.82722 107.04507 215.18596 107.94727 157.20703 L 88.667969 154.16797 z"/></svg>

<svg xmlns="http://www.w3.org/2000/svg" width="100%" height="100%" viewBox="-75.52 -43.52 599.04 599.04"><path d="M48 32C21.5 32 0 53.5 0 80v352c0 26.5 21.5 48 48 48h352c26.5 0 48-21.5 48-48V80c0-26.5-21.5-48-48-48H48zm91.098 64c34.616 25.69 64.389 53.277 84.427 90.695 19.897-37.418 49.812-64.863 84.239-90.695v30.912c10.399-4.558 19.516-9.829 30.39-13.58v35.377c10.352-1.425 19.706-3.563 29.725-3.99v211.213A247293.685 247293.685 0 01223.857 416c-47.96-19.991-95.681-39.982-143.736-60.068V144.529c9.26 1.235 18.234 2.423 28.158 3.752v-34.949c11.017 3.751 20.23 8.928 30.819 13.961V96zm160.213 16.762c-7.123 6.173-13.295 11.254-19.088 16.668-19.707 18.281-37.847 37.892-49.48 62.584-2.185 4.606-4.132 9.211-4.132 14.625l.143 178.449c18.804-32.005 46.345-56.365 74.693-79.016-.712-64.2-1.424-127.924-2.136-193.31zm-151.57.19c-.76 65.528-1.474 129.634-2.186 193.17 28.965 23.077 54.988 47.768 74.6 78.966v-6.031c0-56.032-.096-112.064.142-168.096.047-7.693-1.663-14.578-5.082-21.274-15.67-30.817-40.124-53.943-67.475-76.736zm182.007 12.915c-7.787 3.846-15.1 6.744-21.652 11.303.617 57.741 1.28 115.246 1.898 172.75-8.12 6.838-16.287 13.342-24.027 20.322-15.243 13.723-29.867 28.11-41.31 45.348l-2.186 3.562c.522-.522.904-.855 1.236-1.14.617-.523 1.233-1.044 1.803-1.614 25.974-21.843 55.7-37.323 87.277-50.002-.997-66.716-1.994-133.243-3.039-200.529zm-212.826.334c-1.092 67.049-2.137 133.574-3.182 200.195 31.957 12.821 61.921 28.492 88.608 50.002-17.712-26.449-41.075-47.153-65.244-66.242.617-58.311 1.234-115.767 1.851-173.129-7.265-3.988-14.056-7.692-22.033-10.826zm242.457 27.73c-6.98 1.188-13.675 2.28-20.75 3.467.902 58.17 1.756 117.809 2.658 175.17l-6.648 2.328c-12.584 4.891-24.834 10.447-36.705 16.858-22.366 12.014-43.592 25.497-60.211 45.156l-3.942 5.557 73.934-30.58c17.142-7.17 34.284-14.34 51.664-21.653V153.932zm-270.711.237v196.16c41.312 17.285 82.292 34.427 124.648 52.139-6.363-8.595-12.584-14.957-19.421-20.75-24.028-20.371-51.664-34.57-80.63-46.299-2.753-1.14-8.025-3.182-8.025-3.182.902-57.409 1.805-117.05 2.707-175.029l-19.279-3.039z"/></svg>
